X:39
T:SHAMBUY1- Shambuy
S:from Rutherford's 60 CD's
Q:1/4=40
L:1/8
M:6/8
K:D
D2A AFA|B/c/dF ~E2D|D2A AFA|B3d3|D2 A AFA|B/c/dF E2D|\
(d/e/f)d c/d/ec|B3d3::d/e/fd c/d/ec|B/c/dF~E2D|\
d/e/fc c/d/ec|B3d3|d/e/fd c/d/ec|B/c/dF ~E2D|D2A AFA|B3~d3:]

